X:96
T:Steyrer Tanz in G, nr. 65
C:traditionell
R:Steirer
A:Hallstatt, Salzkammergut
B:Corpus Musicae Popularis Austriacae (COMPA), 5.Band: J.M.Schmalnauer " Tanz Musik", Verlag Boehlau, Wien 1996
S:manuscript des Johann Michael Schmalnauer um 1820
N:im der quelle in G
Z:abc transcription Simon Wascher
F:http://simonwascher.info/TradArchiv/
M:3/4
L:1/8
K:G
V:1
%violino 1mo
Bd |\
caBgAf | g2 BdgB | DAfADA | g2 BdgB |\
caBgAf | g2 BdgB | DAfAdf | g4 :|
|: Bg |\
Tf2 AdfA | g2 BdgB | Tf2 AdfA | g2 BdgB |\
caBgAf | g2 BdgB | DAfAdf | g4 :|
V:2
%violino 2do
GB |\
AcGBFA | B2 DGBD | FADFAD | B2 DGBG |\
AcGBFA | B2 DGBD | FADFAD | B4 :|
G,B, |\
CDFDCD | B,DGDB,D | CDFDCD | B,DGDB,D |\
AcGBFA | B2 DGBD | FADFAD | B4 :|
